Numix-GalliumOS/48/mimetypes/application-x-krita.svg

<?xml version="1.0" encoding="UTF-8" standalone="no"?>
<svg
   xmlns:dc="http://purl.org/dc/elements/1.1/"
   xmlns:cc="http://creativecommons.org/ns#"
   xmlns:rdf="http://www.w3.org/1999/02/22-rdf-syntax-ns#"
   xmlns:svg="http://www.w3.org/2000/svg"
   xmlns="http://www.w3.org/2000/svg"
   xmlns:sodipodi="http://sodipodi.sourceforge.net/DTD/sodipodi-0.dtd"
   xmlns:inkscape="http://www.inkscape.org/namespaces/inkscape"
   width="48"
   viewBox="0 0 48 48"
   height="48"
   id="svg2"
   version="1.1"
   inkscape:version="0.91 r13725"
   sodipodi:docname="image-x-krita1.svg">
  <metadata
     id="metadata18">
    <rdf:RDF>
      <cc:Work
         rdf:about="">
        <dc:format>image/svg+xml</dc:format>
        <dc:type
           rdf:resource="http://purl.org/dc/dcmitype/StillImage" />
        <dc:title></dc:title>
      </cc:Work>
    </rdf:RDF>
  </metadata>
  <sodipodi:namedview
     pagecolor="#ffffff"
     bordercolor="#666666"
     borderopacity="1"
     objecttolerance="10"
     gridtolerance="10"
     guidetolerance="10"
     inkscape:pageopacity="0"
     inkscape:pageshadow="2"
     inkscape:window-width="1366"
     inkscape:window-height="713"
     id="namedview16"
     showgrid="false"
     inkscape:zoom="1"
     inkscape:cx="21.183153"
     inkscape:cy="21.278043"
     inkscape:window-x="0"
     inkscape:window-y="28"
     inkscape:window-maximized="1"
     inkscape:current-layer="svg2">
    <inkscape:grid
       type="xygrid"
       id="grid3352" />
  </sodipodi:namedview>
  <defs
     id="defs4" />
  <path
     style="fill:#9a773c"
     d="M 8,1 C 6.9714285,1 6,1.9714285 6,3 l 0,42 c 0,0.971429 1.0285714,2 2,2 l 32,0 c 0.971429,0 2,-1.028571 2,-2 L 42,14 29,1 z"
     id="path6" />
  <path
     style="fill-opacity:.196"
     d="M 29,12 29.0625,12.0625 29.21875,12 29,12 z m 2,2 11,11 0,-11 -11,0 z"
     id="path8" />
  <path
     style="fill:#fff;fill-opacity:.392"
     d="m 29,1 13,13 -11,0 c -0.971429,0 -2,-1.028571 -2,-2 L 29,1 z"
     id="path10" />
  <g
     style="fill:#fff"
     transform="matrix(.47869 0 0 .48595 13.85359 14.7107)"
     id="g12" />
  <path
     style="fill:#ffffff;fill-opacity:1;fill-rule:nonzero;stroke:none"
     d="m 16.274647,16 c -1.171301,0 -2.941953,2.307755 -2.016269,3.134886 l 4.830888,4.316572 c 0.182594,-0.364504 0.416747,-0.7378 0.742019,-1.091839 0.354996,-0.384562 0.696939,-0.635787 1.01202,-0.847689 L 17.205084,16.691433 C 16.824087,16.283712 16.75642,16 16.274647,16 Z m 8.892566,5.488492 c -0.252233,0 -0.518921,0.0087 -0.771155,0.01563 -1.051938,0.0061 -2.154754,0.189435 -3.131241,0.546896 -0.698357,0.566941 -1.183085,1.19198 -1.645259,1.939527 -0.922312,2.551532 0.176717,6.849495 4.220957,7.847958 4.584378,1.127523 4.829249,-0.09156 6.79277,1.253954 1.973711,1.342041 0.868642,3.375725 1.804543,2.810655 0.480688,-0.286022 2.004731,-2.424254 1.437417,-5.912336 -0.614024,-3.73661 -2.213381,-5.726729 -3.822754,-7.086209 -1.247583,-1.056018 -3.098163,-1.41607 -4.883335,-1.41607 z"
     id="path47"
     inkscape:connector-curvature="0"
     sodipodi:nodetypes="cscccccsccccccccss" />
</svg>

<svg xmlns="http://www.w3.org/2000/svg" viewBox="0 0 48 48">
 <path d="m 8 1 c -1.029 0 -2 0.971 -2 2 l 0 42 c 0 0.971 1.029 2 2 2 l 32 0 c 0.971 0 2 -1.029 2 -2 l 0 -31 -13 -13 z" style="fill:#9a773c"/>
 <path d="m 29 12 0.063 0.063 0.156 -0.063 -0.219 0 z m 2 2 11 11 0 -11 -11 0 z" style="fill-opacity:0.196"/>
 <path d="m 29 1 13 13 -11 0 c -0.971 0 -2 -1.029 -2 -2 l 0 -11 z" style="fill:#fff;fill-opacity:0.392"/>
 <path d="m 16.275 16 c -1.171 0 -2.942 2.308 -2.02 3.135 l 4.831 4.317 c 0.183 -0.365 0.417 -0.738 0.742 -1.092 0.355 -0.385 0.697 -0.636 1.012 -0.848 l -3.638 -4.82 c -0.381 -0.408 -0.449 -0.691 -0.93 -0.691 m 8.893 5.488 c -0.252 0 -0.519 0.009 -0.771 0.016 -1.052 0.006 -2.155 0.189 -3.131 0.547 -0.698 0.567 -1.183 1.192 -1.645 1.94 -0.922 2.552 0.177 6.849 4.221 7.848 4.584 1.128 4.829 -0.092 6.793 1.254 1.974 1.342 0.869 3.376 1.805 2.811 0.481 -0.286 2 -2.424 1.437 -5.912 -0.614 -3.737 -2.213 -5.727 -3.823 -7.086 -1.248 -1.056 -3.098 -1.416 -4.883 -1.416 z" style="fill:#fff;fill-opacity:1;stroke:none;fill-rule:nonzero"/>
</svg>
